X:197
T:The Gravel Walk
Z:Jack Campin, http://www.campin.me.uk/
F:Jack Campin's Nine-Note Tunebook
% last edit 27-02-2013
M:C|
L:1/8
Q:1/2=100
N:usually in A dorian
K:DDor
D2AD EDAD|D2AG EDCE|D2AD (3EFG AB|cAGF EDCE:|
D2dD cDBD|D2AG EDCE|D2dD   cDBd  |cAGF EDCE |
D2dD cDBD|D2AG EDCE|DEFG   AcBd  |cAGF EDCE||
FDDC D3E |FDDC ECEG|FDDC   D2AB  |cBcA GECE:|
F2cF dFcF|F2cF EDCE|F2cF   dFcd  |cAGF EDCE |
F2cF dFcF|F2cF EDCE|DEFG   AcBd  |cAGF EDCE|]

